SVG_Azure_Grouped/Dynamics 365/Application Talent Onboard.svg

<?xml version="1.0" encoding="UTF-8" standalone="no"?>
<!-- Generated by Microsoft Visio, SVG Export Application Talent Onboard.svg Page-1 -->

<svg
   xmlns:dc="http://purl.org/dc/elements/1.1/"
   xmlns:cc="http://creativecommons.org/ns#"
   xmlns:rdf="http://www.w3.org/1999/02/22-rdf-syntax-ns#"
   xmlns:svg="http://www.w3.org/2000/svg"
   xmlns="http://www.w3.org/2000/svg"
   xmlns:sodipodi="http://sodipodi.sourceforge.net/DTD/sodipodi-0.dtd"
   xmlns:inkscape="http://www.inkscape.org/namespaces/inkscape"
   width="0.78735912in"
   height="0.78736007in"
   viewBox="0 0 56.689855 56.690066"
   xml:space="preserve"
   class="st6"
   version="1.1"
   id="svg55"
   sodipodi:docname="Application Talent Onboard.svg"
   style="font-size:12px;overflow:visible;color-interpolation-filters:sRGB;fill:none;fill-rule:evenodd;stroke-linecap:square;stroke-miterlimit:3"
   inkscape:version="0.92.5 (2060ec1f9f, 2020-04-08)"><metadata
   id="metadata59"><rdf:RDF><cc:Work
       rdf:about=""><dc:format>image/svg+xml</dc:format><dc:type
         rdf:resource="http://purl.org/dc/dcmitype/StillImage" /></cc:Work></rdf:RDF></metadata><sodipodi:namedview
   pagecolor="#ffffff"
   bordercolor="#666666"
   borderopacity="1"
   objecttolerance="10"
   gridtolerance="10"
   guidetolerance="10"
   inkscape:pageopacity="0"
   inkscape:pageshadow="2"
   inkscape:window-width="640"
   inkscape:window-height="480"
   id="namedview57"
   showgrid="false"
   inkscape:zoom="1.8365233"
   inkscape:cx="37.795184"
   inkscape:cy="18.900351"
   inkscape:window-x="0"
   inkscape:window-y="0"
   inkscape:window-maximized="0"
   inkscape:current-layer="svg55" />
	<style
   type="text/css"
   id="style2">
	<![CDATA[
		.st1 {fill:url(#grad0-6);stroke:none;stroke-linecap:butt;stroke-width:0.75}
		.st2 {fill:url(#grad0-10);stroke:none;stroke-linecap:butt;stroke-width:0.75}
		.st3 {fill:#000000;fill-opacity:0.32;stroke:none;stroke-linecap:butt;stroke-width:0.75}
		.st4 {fill:#000000;fill-opacity:0.24;stroke:none;stroke-linecap:butt;stroke-width:0.75}
		.st5 {fill:url(#grad0-18);stroke:none;stroke-linecap:butt;stroke-width:0.75}
		.st6 {fill:none;fill-rule:evenodd;font-size:12px;overflow:visible;stroke-linecap:square;stroke-miterlimit:3}
	]]>
	</style>

	<defs
   id="Patterns_And_Gradients">
		<linearGradient
   id="grad0-6"
   x1="0"
   y1="39.69"
   x2="56.69"
   y2="39.69"
   gradientUnits="userSpaceOnUse">
			<stop
   offset="0"
   stop-color="#0078d4"
   stop-opacity="1"
   id="stop4" />
			<stop
   offset="1"
   stop-color="#2064ae"
   stop-opacity="1"
   id="stop6" />
		</linearGradient>
		<linearGradient
   id="grad0-10"
   x1="0"
   y1="33.542989"
   x2="47.910104"
   y2="33.542989"
   gradientTransform="scale(0.84512444,1.1832577)"
   gradientUnits="userSpaceOnUse">
			<stop
   offset="0"
   stop-color="#7cecff"
   stop-opacity="1"
   id="stop9" />
			<stop
   offset="1"
   stop-color="#50e6ff"
   stop-opacity="1"
   id="stop11" />
		</linearGradient>
		<linearGradient
   id="grad0-18"
   x1="0"
   y1="72.080999"
   x2="24.297001"
   y2="72.080999"
   gradientUnits="userSpaceOnUse">
			<stop
   offset="0"
   stop-color="#40c4f5"
   stop-opacity="1"
   id="stop14" />
			<stop
   offset="1"
   stop-color="#0095e6"
   stop-opacity="1"
   id="stop16" />
		</linearGradient>
	</defs>
	<g
   id="g53"
   transform="translate(-5.6693772,-5.6742325)">
		<title
   id="title20">Page-1</title>
		<g
   id="group21155-1"
   transform="translate(5.66929,-34.0157)">
			<title
   id="title22">Application Talent Onboard.21155</title>
			<g
   id="group21156-2">
				<title
   id="title24">Sheet.21156</title>
				<g
   id="shape21157-3"
   transform="translate(0,-6.74915e-5)">
					<title
   id="title26">Sheet.21157</title>
					<path
   d="m 56.69,42.38 c 0,-1.49 -1.21,-2.69 -2.7,-2.69 h -10.8 c -1.49,0 -2.7,1.2 -2.7,2.69 v 25.65 c 0,6.71 -5.43,12.15 -12.14,12.15 -6.69,0 -12.11,-5.4 -12.15,-12.08 v 25.54 c 3.76,1.79 7.9,2.74 12.15,2.74 7.51,0 14.72,-2.99 20.04,-8.3 5.16,-5.16 8.12,-12.1 8.29,-19.37 h 0.01 V 68.03 Z M 0,68.13 v -0.1 0 c 0,0.03 0,0.07 0,0.1 z"
   class="st1"
   id="path28"
   inkscape:connector-curvature="0"
   style="fill:url(#grad0-6);stroke:none;stroke-width:0.75;stroke-linecap:butt" />
				</g>
				<g
   id="shape21158-7">
					<title
   id="title31">Sheet.21158</title>
					<path
   d="M 40.49,42.42 V 68.03 H 28.35 16.2 v 25.89 c 0,1.36 -1.1,2.46 -2.46,2.46 H 2.7 C 1.21,96.38 0,95.17 0,93.68 v -25.65 0 -0.09 -0.58 H 0.01 C 0.18,60.08 3.15,53.14 8.3,47.99 c 5.32,-5.32 12.53,-8.3 20.05,-8.3 4.24,0 8.38,0.95 12.14,2.73 z"
   class="st2"
   id="path33"
   inkscape:connector-curvature="0"
   style="fill:url(#grad0-10);stroke:none;stroke-width:0.75;stroke-linecap:butt" />
				</g>
				<g
   id="shape21159-11"
   transform="translate(16.198,-14.8482)">
					<title
   id="title36">Sheet.21159</title>
					<circle
   cx="12.1485"
   cy="84.2295"
   class="st3"
   id="ellipse38"
   r="12.1485"
   style="fill:#000000;fill-opacity:0.31999996;stroke:none;stroke-width:0.75;stroke-linecap:butt" />
				</g>
				<g
   id="shape21160-13"
   transform="translate(16.198,-15.9416)">
					<title
   id="title41">Sheet.21160</title>
					<circle
   cx="12.1485"
   cy="84.2295"
   class="st4"
   id="ellipse43"
   r="12.1485"
   style="fill:#000000;fill-opacity:0.23999999;stroke:none;stroke-width:0.75;stroke-linecap:butt" />
				</g>
				<g
   id="shape21161-15"
   transform="translate(16.198,-16.198)">
					<title
   id="title46">Sheet.21161</title>
					<circle
   cx="12.1485"
   cy="84.2295"
   class="st5"
   id="ellipse48"
   r="12.1485"
   style="fill:url(#grad0-18);stroke:none;stroke-width:0.75;stroke-linecap:butt" />
				</g>
			</g>
		</g>
	</g>
</svg>

<?xml version="1.0" encoding="UTF-8" standalone="no"?>
<!DOCTYPE svg PUBLIC "-//W3C//DTD SVG 1.1//EN" "http://www.w3.org/Graphics/SVG/1.1/DTD/svg11.dtd">
<!-- Generated by Microsoft Visio, SVG Export Application Talent Onboard.svg Page-1 -->
<svg xmlns="http://www.w3.org/2000/svg" xmlns:xlink="http://www.w3.org/1999/xlink" xmlns:ev="http://www.w3.org/2001/xml-events"
		width="0.944882in" height="1.33858in" viewBox="0 0 68.0315 96.378" xml:space="preserve" color-interpolation-filters="sRGB"
		class="st6">
	<style type="text/css">
	<![CDATA[
		.st1 {fill:url(#grad0-6);stroke:none;stroke-linecap:butt;stroke-width:0.75}
		.st2 {fill:url(#grad0-10);stroke:none;stroke-linecap:butt;stroke-width:0.75}
		.st3 {fill:#000000;fill-opacity:0.32;stroke:none;stroke-linecap:butt;stroke-width:0.75}
		.st4 {fill:#000000;fill-opacity:0.24;stroke:none;stroke-linecap:butt;stroke-width:0.75}
		.st5 {fill:url(#grad0-18);stroke:none;stroke-linecap:butt;stroke-width:0.75}
		.st6 {fill:none;fill-rule:evenodd;font-size:12px;overflow:visible;stroke-linecap:square;stroke-miterlimit:3}
	]]>
	</style>

	<defs id="Patterns_And_Gradients">
		<linearGradient id="grad0-6" x1="0" y1="0" x2="1" y2="0" gradientTransform="rotate(61.828349725202 0.5 0.5)">
			<stop offset="0" stop-color="#0078d4" stop-opacity="1"/>
			<stop offset="1" stop-color="#2064ae" stop-opacity="1"/>
		</linearGradient>
		<linearGradient id="grad0-10" x1="0" y1="0" x2="1" y2="0" gradientTransform="rotate(47.343404606148 0.5 0.5)">
			<stop offset="0" stop-color="#7cecff" stop-opacity="1"/>
			<stop offset="1" stop-color="#50e6ff" stop-opacity="1"/>
		</linearGradient>
		<linearGradient id="grad0-18" x1="0" y1="0" x2="1" y2="0" gradientTransform="rotate(58.844934505204 0.5 0.5)">
			<stop offset="0" stop-color="#40c4f5" stop-opacity="1"/>
			<stop offset="1" stop-color="#0095e6" stop-opacity="1"/>
		</linearGradient>
	</defs>
	<g>
		<title>Page-1</title>
		<g id="group20680-1" transform="translate(5.66929,-34.0157)">
			<title>Application Talent Onboard.20680</title>
			<g id="group20681-2">
				<title>Sheet.20681</title>
				<g id="shape20682-3" transform="translate(0,-6.74915E-05)">
					<title>Sheet.20682</title>
					<path d="M56.69 42.38 C56.69 40.89 55.48 39.69 53.99 39.69 L43.19 39.69 C41.7 39.69 40.49 40.89 40.49 42.38 L40.49
								 68.03 C40.49 74.74 35.06 80.18 28.35 80.18 C21.66 80.18 16.24 74.78 16.2 68.1 L16.2 93.64 C19.96
								 95.43 24.1 96.38 28.35 96.38 C35.86 96.38 43.07 93.39 48.39 88.08 C53.55 82.92 56.51 75.98 56.68
								 68.71 L56.69 68.71 L56.69 68.03 L56.69 42.38 ZM0 68.13 L0 68.03 L0 68.03 C0 68.06 0 68.1 0 68.13
								 Z" class="st1"/>
				</g>
				<g id="shape20683-7">
					<title>Sheet.20683</title>
					<path d="M40.49 42.42 L40.49 68.03 L28.35 68.03 L16.2 68.03 L16.2 93.92 C16.2 95.28 15.1 96.38 13.74 96.38 L2.7
								 96.38 C1.21 96.38 0 95.17 0 93.68 L0 68.03 L0 68.03 L0 67.94 L0 67.36 L0.01 67.36 C0.18 60.08 3.15
								 53.14 8.3 47.99 C13.62 42.67 20.83 39.69 28.35 39.69 C32.59 39.69 36.73 40.64 40.49 42.42 Z"
							class="st2"/>
				</g>
				<g id="shape20684-11" transform="translate(16.198,-14.8482)">
					<title>Sheet.20684</title>
					<ellipse cx="12.1485" cy="84.2295" rx="12.1485" ry="12.1485" class="st3"/>
				</g>
				<g id="shape20685-13" transform="translate(16.198,-15.9416)">
					<title>Sheet.20685</title>
					<ellipse cx="12.1485" cy="84.2295" rx="12.1485" ry="12.1485" class="st4"/>
				</g>
				<g id="shape20686-15" transform="translate(16.198,-16.198)">
					<title>Sheet.20686</title>
					<ellipse cx="12.1485" cy="84.2295" rx="12.1485" ry="12.1485" class="st5"/>
				</g>
			</g>
		</g>
	</g>
</svg>
